;FLAVOR:Marlin
;TIME:16539
;Filament used: 10.9903m
;Layer height: 0.2
;MINX:86.5
;MINY:86.499
;MINZ:0.2
;MAXX:213.5
;MAXY:213.501
;MAXZ:5
;TARGET_MACHINE.NAME:Creality Ender-3 Max
;Generated with Cura_SteamEngine 5.10.2
M140 S60
M105
M190 S60
M104 S200
M105
M109 S200
; Ender 3 Max Custom Start G-code
G92 E0 ; Reset Extruder
G28 ; Home all axes
G1 Z2.0 F3000 ; Move Z Axis up little to prevent scratching of Heat Bed
G1 X0.1 Y20 Z0.3 F5000.0 ; Move to start position
G1 X0.1 Y200.0 Z0.3 F1500.0 E15 ; Draw the first line
G1 X0.4 Y200.0 Z0.3 F5000.0 ; Move to side a little
G1 X0.4 Y20 Z0.3 F1500.0 E30 ; Draw the second line
G92 E0 ; Reset Extruder
G1 Z2.0 F3000 ; Move Z Axis up little to prevent scratching of Heat Bed
G1 X5 Y20 Z0.3 F5000.0 ; Move over to prevent blob squish
M82 ;absolute extrusion mode
G92 E0
G92 E0
G1 F1500 E-6.5
;LAYER_COUNT:25
;LAYER:0
M107
G0 F6000 X91.689 Y90.865 Z0.2
;TYPE:SKIRT
G1 F1500 E0
G1 F1200 X92.204 Y90.411 E0.02283
G1 X92.667 Y90.027 E0.04284
G1 X93.61 Y89.331 E0.08182
G1 X94.291 Y88.899 E0.10865
G1 X94.808 Y88.594 E0.12861
G1 X95.881 Y88.04 E0.16878
G1 X96.56 Y87.746 E0.19338
G1 X97.1 Y87.532 E0.2127
G1 X98.074 Y87.2 E0.24693
G1 X98.98 Y86.963 E0.27808
G1 X99.527 Y86.839 E0.29673
G1 X100.113 Y86.725 E0.31659
G1 X100.773 Y86.635 E0.33874
G1 X101.493 Y86.568 E0.36279
G1 X102.471 Y86.512 E0.39538
G1 X103.313 Y86.499 E0.42338
G1 X196.559 Y86.499 E3.52476
G1 X197.857 Y86.525 E3.56794
G1 X198.587 Y86.575 E3.59228
G1 X199.297 Y86.644 E3.616
G1 X199.771 Y86.707 E3.63191
G1 X200.344 Y86.812 E3.65128
G1 X201.077 Y86.976 E3.67626
G1 X201.633 Y87.124 E3.6954
G1 X202.746 Y87.474 E3.73421
G1 X203.481 Y87.765 E3.7605
G1 X204.011 Y87.993 E3.77969
G1 X205.079 Y88.526 E3.81939
G1 X205.708 Y88.899 E3.84371
G1 X206.238 Y89.233 E3.86455
G1 X207.188 Y89.91 E3.90335
G1 X207.792 Y90.409 E3.9294
G1 X208.225 Y90.79 E3.94859
G1 X208.743 Y91.278 E3.97226
G1 X209.098 Y91.649 E3.98934
G1 X209.601 Y92.22 E4.01465
G1 X210.16 Y92.903 E4.044
G1 X210.709 Y93.669 E4.07535
G1 X211.102 Y94.29 E4.09979
G1 X211.525 Y95.014 E4.12768
G1 X211.949 Y95.854 E4.15897
G1 X212.242 Y96.528 E4.18342
G1 X212.468 Y97.099 E4.20384
G1 X212.802 Y98.081 E4.23834
G1 X213.034 Y98.97 E4.2689
G1 X213.167 Y99.562 E4.28908
G1 X213.357 Y100.706 E4.32765
G1 X213.432 Y101.504 E4.35431
G1 X213.488 Y102.479 E4.38679
G1 X213.5 Y103.298 E4.41404
G1 X213.499 Y196.704 E7.52073
G1 X213.474 Y197.85 E7.55886
G1 X213.446 Y198.323 E7.57462
G1 X213.355 Y199.299 E7.60722
G1 X213.29 Y199.779 E7.62333
G1 X213.134 Y200.6 E7.65112
G1 X212.887 Y201.607 E7.68561
G1 X212.77 Y202.03 E7.70021
G1 X212.513 Y202.787 E7.7268
G1 X212.235 Y203.482 E7.75169
G1 X212.005 Y204.013 E7.77094
G1 X211.471 Y205.083 E7.81071
G1 X211.086 Y205.736 E7.83593
G1 X210.762 Y206.246 E7.85602
G1 X210.091 Y207.186 E7.89444
G1 X209.585 Y207.8 E7.9209
G1 X209.115 Y208.332 E7.94451
G1 X208.739 Y208.727 E7.96265
G1 X208.652 Y208.796 E7.96634
G1 X208.366 Y209.084 E7.97984
G1 X207.791 Y209.591 E8.00534
G1 X207.322 Y209.979 E8.02558
G1 X206.698 Y210.457 E8.05173
G1 X206.123 Y210.843 E8.07476
G1 X205.288 Y211.349 E8.10723
G1 X204.173 Y211.922 E8.14893
G1 X203.428 Y212.251 E8.17602
G1 X202.907 Y212.465 E8.19475
G1 X202.313 Y212.68 E8.21576
G1 X201.723 Y212.856 E8.23624
G1 X201.035 Y213.033 E8.25987
G1 X200.482 Y213.159 E8.27873
G1 X199.889 Y213.275 E8.29883
G1 X199.227 Y213.365 E8.32105
G1 X198.507 Y213.432 E8.3451
G1 X197.529 Y213.488 E8.37768
G1 X196.675 Y213.501 E8.40609
G1 X103.297 Y213.5 E11.51185
G1 X102.143 Y213.475 E11.55025
G1 X101.413 Y213.425 E11.57458
G1 X100.703 Y213.356 E11.59831
G1 X100.229 Y213.293 E11.61421
G1 X99.656 Y213.188 E11.63359
G1 X98.923 Y213.024 E11.65857
G1 X98.367 Y212.876 E11.67771
G1 X97.266 Y212.531 E11.71608
G1 X96.525 Y212.238 E11.74258
G1 X96.057 Y212.034 E11.75956
G1 X94.923 Y211.461 E11.80182
G1 X94.26 Y211.074 E11.82736
G1 X93.789 Y210.784 E11.84575
G1 X92.79 Y210.072 E11.88656
G1 X92.191 Y209.578 E11.91238
G1 X91.508 Y208.968 E11.94284
G1 X90.909 Y208.36 E11.97123
G1 X90.399 Y207.781 E11.99689
G1 X89.905 Y207.18 E12.02276
G1 X89.291 Y206.331 E12.05761
G1 X88.899 Y205.713 E12.08195
G1 X88.568 Y205.151 E12.10365
G1 X88.121 Y204.263 E12.13671
G1 X88.047 Y204.136 E12.1416
G1 X87.752 Y203.455 E12.16628
G1 X87.536 Y202.91 E12.18578
G1 X87.323 Y202.324 E12.20652
G1 X87.159 Y201.782 E12.22536
G1 X86.962 Y201.013 E12.25176
G1 X86.833 Y200.437 E12.27139
G1 X86.644 Y199.296 E12.30986
G1 X86.568 Y198.493 E12.33669
G1 X86.513 Y197.53 E12.36877
G1 X86.5 Y196.652 E12.39797
G1 X86.501 Y103.296 E15.50301
G1 X86.526 Y102.139 E15.5415
G1 X86.576 Y101.414 E15.56567
G1 X86.625 Y100.892 E15.58311
G1 X86.692 Y100.34 E15.6016
G1 X86.812 Y99.661 E15.62453
G1 X86.972 Y98.941 E15.64907
G1 X87.105 Y98.418 E15.66701
G1 X87.484 Y97.221 E15.70877
G1 X87.751 Y96.548 E15.73286
G1 X87.986 Y96.001 E15.75266
G1 X88.236 Y95.464 E15.77236
G1 X88.556 Y94.869 E15.79483
G1 X88.916 Y94.262 E15.8183
G1 X89.24 Y93.752 E15.8384
G1 X89.887 Y92.844 E15.87548
G1 X90.421 Y92.194 E15.90346
G1 X90.814 Y91.749 E15.92321
G1 X91.64 Y90.926 E15.96199
G1 X91.689 Y90.865 E15.96459
G0 F6000 X91.954 Y91.165
G1 F1200 X92.459 Y90.719 E15.987
G1 X92.905 Y90.349 E16.00627
G1 X93.848 Y89.653 E16.04526
G1 X94.494 Y89.243 E16.0707
G1 X94.992 Y88.949 E16.08994
G1 X96.04 Y88.407 E16.12918
G1 X96.707 Y88.118 E16.15336
G1 X97.229 Y87.911 E16.17203
G1 X98.203 Y87.579 E16.20626
G1 X99.068 Y87.353 E16.236
G1 X99.603 Y87.232 E16.25424
G1 X100.189 Y87.118 E16.2741
G1 X100.81 Y87.033 E16.29494
G1 X101.516 Y86.967 E16.31853
G1 X102.477 Y86.912 E16.35054
G1 X103.319 Y86.899 E16.37855
G1 X196.551 Y86.899 E19.47946
G1 X197.83 Y86.924 E19.52201
G1 X198.549 Y86.973 E19.54598
G1 X199.244 Y87.04 E19.5692
G1 X199.7 Y87.101 E19.5845
G1 X200.256 Y87.202 E19.6033
G1 X200.974 Y87.363 E19.62777
G1 X201.513 Y87.506 E19.64632
G1 X202.626 Y87.856 E19.68512
G1 X203.323 Y88.132 E19.71006
G1 X203.832 Y88.351 E19.72849
G1 X204.9 Y88.884 E19.76819
G1 X205.495 Y89.237 E19.7912
G1 X206.006 Y89.559 E19.81129
G1 X206.956 Y90.236 E19.85009
G1 X207.528 Y90.709 E19.87477
G1 X207.951 Y91.081 E19.89351
G1 X208.454 Y91.555 E19.9165
G1 X208.809 Y91.926 E19.93357
G1 X209.291 Y92.473 E19.95782
G1 X209.85 Y93.156 E19.98718
G1 X210.371 Y93.883 E20.01693
G1 X210.757 Y94.492 E20.04091
G1 X211.168 Y95.194 E20.06796
G1 X211.582 Y96.014 E20.09852
G1 X211.87 Y96.676 E20.12253
G1 X212.089 Y97.228 E20.14228
G1 X212.423 Y98.21 E20.17678
G1 X212.644 Y99.058 E20.20592
G1 X212.772 Y99.628 E20.22536
G1 X212.962 Y100.772 E20.26393
G1 X213.033 Y101.527 E20.28915
G1 X213.088 Y102.485 E20.32106
G1 X213.1 Y103.298 E20.34811
G1 X213.099 Y196.696 E23.45454
G1 X213.075 Y197.827 E23.49216
G1 X213.048 Y198.286 E23.50746
G1 X212.959 Y199.245 E23.53949
G1 X212.897 Y199.704 E23.55489
G1 X212.745 Y200.505 E23.58201
G1 X212.501 Y201.501 E23.61612
G1 X212.391 Y201.901 E23.62992
G1 X212.134 Y202.658 E23.65651
G1 X211.868 Y203.323 E23.68033
G1 X211.647 Y203.835 E23.69887
G1 X211.126 Y204.88 E23.73771
G1 X210.748 Y205.522 E23.76249
G1 X210.436 Y206.014 E23.78187
G1 X209.765 Y206.954 E23.82028
G1 X209.285 Y207.535 E23.84535
G1 X208.825 Y208.056 E23.86846
G1 X208.449 Y208.451 E23.8866
G1 X208.396 Y208.486 E23.88871
G1 X208.082 Y208.802 E23.90353
G1 X207.536 Y209.283 E23.92773
G1 X207.078 Y209.662 E23.9475
G1 X206.475 Y210.125 E23.97279
G1 X205.916 Y210.501 E23.9952
G1 X205.105 Y210.993 E24.02675
G1 X204.011 Y211.556 E24.06767
G1 X203.275 Y211.881 E24.09443
G1 X202.771 Y212.089 E24.11256
G1 X202.198 Y212.297 E24.13284
G1 X201.623 Y212.469 E24.1528
G1 X200.946 Y212.643 E24.17605
G1 X200.405 Y212.766 E24.1945
G1 X199.812 Y212.882 E24.2146
G1 X199.19 Y212.967 E24.23548
G1 X198.484 Y213.033 E24.25906
G1 X197.523 Y213.088 E24.29108
G1 X196.675 Y213.101 E24.31929
G1 X103.305 Y213.1 E27.42479
G1 X102.17 Y213.076 E27.46254
G1 X101.451 Y213.027 E27.48651
G1 X100.756 Y212.96 E27.50974
G1 X100.3 Y212.899 E27.52504
G1 X99.744 Y212.798 E27.54383
G1 X99.026 Y212.637 E27.56831
G1 X98.487 Y212.494 E27.58686
G1 X97.386 Y212.149 E27.62523
G1 X96.684 Y211.871 E27.65034
G1 X96.237 Y211.677 E27.66655
G1 X95.125 Y211.115 E27.70799
G1 X94.47 Y210.733 E27.73321
G1 X93.999 Y210.443 E27.75161
G1 X93.022 Y209.746 E27.79152
G1 X92.457 Y209.279 E27.8159
G1 X91.793 Y208.687 E27.84549
G1 X91.194 Y208.079 E27.87388
G1 X90.708 Y207.527 E27.89834
G1 X90.214 Y206.926 E27.92422
G1 X89.629 Y206.117 E27.95742
G1 X89.244 Y205.51 E27.98133
G1 X88.913 Y204.948 E28.00302
G1 X88.468 Y204.064 E28.03594
G1 X88.414 Y203.977 E28.03934
G1 X88.124 Y203.307 E28.06363
G1 X87.912 Y202.773 E28.08274
G1 X87.706 Y202.208 E28.10274
G1 X87.542 Y201.666 E28.12157
G1 X87.352 Y200.925 E28.14702
G1 X87.228 Y200.372 E28.16587
G1 X87.039 Y199.231 E28.20433
G1 X86.967 Y198.47 E28.22976
G1 X86.913 Y197.524 E28.26127
G1 X86.9 Y196.652 E28.29028
G1 X86.901 Y103.304 E31.39504
G1 X86.925 Y102.166 E31.4329
G1 X86.974 Y101.451 E31.45674
G1 X87.022 Y100.94 E31.47381
G1 X87.086 Y100.41 E31.49157
G1 X87.203 Y99.748 E31.51393
G1 X87.36 Y99.04 E31.53805
G1 X87.493 Y98.517 E31.556
G1 X87.865 Y97.342 E31.59699
G1 X88.119 Y96.706 E31.61977
G1 X88.349 Y96.17 E31.63916
G1 X88.599 Y95.633 E31.65887
G1 X88.9 Y95.073 E31.68001
G1 X89.254 Y94.476 E31.7031
G1 X89.566 Y93.984 E31.72247
G1 X90.213 Y93.076 E31.75956
G1 X90.721 Y92.459 E31.78614
G1 X91.114 Y92.014 E31.80589
G1 X91.938 Y91.193 E31.84457
G1 X91.954 Y91.165 E31.84565
G0 F6000 X92.218 Y91.465
G1 F1200 X92.715 Y91.027 E31.86768
G1 X93.143 Y90.671 E31.8862
G1 X94.086 Y89.975 E31.92518
G1 X94.698 Y89.587 E31.94928
G1 X95.176 Y89.304 E31.96775
G1 X96.199 Y88.774 E32.00607
G1 X96.855 Y88.49 E32.02985
G1 X97.358 Y88.29 E32.04785
G1 X98.332 Y87.958 E32.08208
G1 X99.156 Y87.743 E32.1104
G1 X99.679 Y87.625 E32.12824
G1 X100.265 Y87.511 E32.14809
G1 X100.847 Y87.431 E32.16763
G1 X101.539 Y87.366 E32.19075
G1 X102.483 Y87.312 E32.2222
G1 X103.325 Y87.299 E32.25021
G1 X196.543 Y87.299 E35.35065
G1 X197.803 Y87.323 E35.39256
G1 X198.511 Y87.371 E35.41617
G1 X199.191 Y87.436 E35.43889
G1 X199.629 Y87.495 E35.45359
G1 X200.168 Y87.592 E35.4718
G1 X200.872 Y87.75 E35.4958
G1 X201.393 Y87.888 E35.51372
G1 X202.506 Y88.238 E35.55253
G1 X203.165 Y88.499 E35.57611
G1 X203.653 Y88.709 E35.59378
G1 X204.721 Y89.242 E35.63348
G1 X205.282 Y89.575 E35.65517
G1 X205.774 Y89.885 E35.67452
G1 X206.724 Y90.562 E35.71331
G1 X207.264 Y91.009 E35.73663
G1 X207.677 Y91.372 E35.75492
G1 X208.165 Y91.831 E35.7772
G1 X208.509 Y92.191 E35.79376
G1 X208.982 Y92.727 E35.81754
G1 X209.525 Y93.389 E35.84602
G1 X210.033 Y94.097 E35.875
G1 X210.412 Y94.694 E35.89852
G1 X210.811 Y95.374 E35.92474
G1 X211.215 Y96.173 E35.95452
G1 X211.498 Y96.824 E35.97813
G1 X211.71 Y97.357 E35.99721
G1 X212.044 Y98.339 E36.03171
G1 X212.254 Y99.146 E36.05944
G1 X212.377 Y99.694 E36.07812
G1 X212.567 Y100.838 E36.11669
G1 X212.634 Y101.55 E36.14048
G1 X212.688 Y102.491 E36.17183
G1 X212.7 Y103.298 E36.19867
G1 X212.699 Y196.688 E39.30484
G1 X212.676 Y197.804 E39.34196
G1 X212.65 Y198.249 E39.35679
G1 X212.563 Y199.192 E39.38829
G1 X212.504 Y199.63 E39.40299
G1 X212.357 Y200.41 E39.42938
G1 X212.115 Y201.396 E39.46315
G1 X212.012 Y201.773 E39.47615
G1 X211.762 Y202.51 E39.50204
G1 X211.501 Y203.165 E39.52549
G1 X211.289 Y203.657 E39.54331
G1 X210.768 Y204.702 E39.58214
G1 X210.41 Y205.308 E39.60555
G1 X210.11 Y205.782 E39.62421
G1 X209.456 Y206.699 E39.66167
G1 X208.985 Y207.27 E39.68629
G1 X208.535 Y207.78 E39.70891
G1 X208.159 Y208.175 E39.72705
G1 X208.15 Y208.166 E39.72747
G1 X207.798 Y208.52 E39.74408
G1 X207.281 Y208.975 E39.76698
G1 X206.834 Y209.345 E39.78628
G1 X206.252 Y209.793 E39.81071
G1 X205.708 Y210.159 E39.83252
G1 X204.922 Y210.637 E39.86312
G1 X203.828 Y211.2 E39.90404
G1 X203.122 Y211.511 E39.9297
G1 X202.634 Y211.713 E39.94726
G1 X202.083 Y211.914 E39.96677
G1 X201.524 Y212.082 E39.98619
G1 X200.858 Y212.253 E40.00906
G1 X200.328 Y212.373 E40.02713
G1 X199.735 Y212.489 E40.04723
G1 X199.153 Y212.569 E40.06677
G1 X198.461 Y212.634 E40.08988
G1 X197.517 Y212.688 E40.12133
G1 X196.675 Y212.701 E40.14934
G1 X103.313 Y212.7 E43.25457
G1 X102.197 Y212.677 E43.2917
G1 X101.489 Y212.629 E43.3153
G1 X100.809 Y212.564 E43.33802
G1 X100.371 Y212.505 E43.35272
G1 X99.832 Y212.408 E43.37094
G1 X99.128 Y212.25 E43.39493
G1 X98.607 Y212.112 E43.41286
G1 X97.506 Y211.767 E43.45124
G1 X96.843 Y211.504 E43.47496
G1 X96.417 Y211.32 E43.49039
G1 X95.326 Y210.769 E43.53104
G1 X94.679 Y210.392 E43.55595
G1 X94.231 Y210.117 E43.57343
G1 X93.277 Y209.437 E43.6124
G1 X92.723 Y208.98 E43.63629
G1 X92.078 Y208.406 E43.665
G1 X91.494 Y207.814 E43.69266
G1 X91.017 Y207.273 E43.71665
G1 X90.538 Y206.691 E43.74172
G1 X89.967 Y205.903 E43.77409
G1 X89.588 Y205.306 E43.79761
G1 X89.27 Y204.768 E43.81839
G1 X88.79 Y203.814 E43.85391
G1 X88.781 Y203.818 E43.85424
G1 X88.496 Y203.159 E43.87812
G1 X88.288 Y202.635 E43.89687
G1 X88.089 Y202.092 E43.91611
G1 X87.925 Y201.55 E43.93494
G1 X87.742 Y200.837 E43.95943
G1 X87.623 Y200.307 E43.97749
G1 X87.434 Y199.166 E44.01596
G1 X87.366 Y198.447 E44.03998
G1 X87.313 Y197.518 E44.07093
G1 X87.3 Y196.652 E44.09974
G1 X87.301 Y103.312 E47.20424
G1 X87.324 Y102.193 E47.24146
G1 X87.372 Y101.488 E47.26497
G1 X87.419 Y100.988 E47.28167
G1 X87.48 Y100.479 E47.29872
G1 X87.593 Y99.835 E47.32047
G1 X87.748 Y99.139 E47.34418
G1 X87.881 Y98.616 E47.36213
G1 X88.237 Y97.49 E47.40141
G1 X88.486 Y96.864 E47.42382
G1 X88.712 Y96.339 E47.44283
G1 X88.962 Y95.802 E47.46253
G1 X89.244 Y95.277 E47.48235
G1 X89.592 Y94.69 E47.50505
G1 X89.892 Y94.216 E47.5237
G1 X90.539 Y93.308 E47.56079
G1 X91.021 Y92.723 E47.586
G1 X91.396 Y92.297 E47.60487
G1 X92.224 Y91.472 E47.64375
G1 X92.218 Y91.465 E47.64406
G1 F1500 E41.14406
;MESH:3d_print_cost_estimator.stl
G0 F6000 X97.237 Y101.79
G0 X150 Y201.584
;TYPE:WALL-INNER
G1 F1500 E47.64406
G1 F1200 X197.213 Y201.584 E49.21437
G1 X197.937 Y201.529 E49.23852
G1 X198.577 Y201.372 E49.26044
G1 X199.218 Y201.107 E49.28351
G1 X199.801 Y200.749 E49.30626
G1 X200.31 Y200.314 E49.32853
G1 X200.752 Y199.798 E49.35113
G1 X201.112 Y199.206 E49.37417
G1 X201.372 Y198.587 E49.3965
G1 X201.529 Y197.938 E49.41871
G1 X201.584 Y197.213 E49.44289
G1 X201.584 Y102.785 E52.58358
G1 X201.525 Y102.058 E52.60784
G1 X201.371 Y101.407 E52.63009
G1 X201.112 Y100.79 E52.65235
G1 X200.752 Y100.198 E52.67539
G1 X200.31 Y99.682 E52.69799
G1 X199.802 Y99.248 E52.72021
G1 X199.206 Y98.885 E52.74342
G1 X198.585 Y98.625 E52.76581
G1 X197.926 Y98.467 E52.78835
G1 X197.236 Y98.412 E52.81138
G1 X102.785 Y98.412 E55.95283
G1 X102.062 Y98.471 E55.97696
G1 X101.407 Y98.625 E55.99934
G1 X100.79 Y98.884 E56.02159
G1 X100.194 Y99.248 E56.04482
G1 X99.686 Y99.682 E56.06704
G1 X99.244 Y100.198 E56.08964
G1 X98.885 Y100.79 E56.11267
G1 X98.625 Y101.411 E56.13506
G1 X98.467 Y102.07 E56.1576
G1 X98.412 Y102.76 E56.18062
G1 X98.412 Y197.211 E59.32207
G1 X98.471 Y197.938 E59.34633
G1 X98.625 Y198.589 E59.36858
G1 X98.884 Y199.206 E59.39084
G1 X99.244 Y199.798 E59.41389
G1 X99.686 Y200.314 E59.43648
G1 X100.195 Y200.749 E59.45875
G1 X100.778 Y201.107 E59.48151
G1 X101.419 Y201.371 E59.50456
G1 X102.063 Y201.529 E59.52662
G1 X102.783 Y201.584 E59.55064
G1 X150 Y201.584 E61.12108
G0 F6000 X150 Y201.984
;TYPE:WALL-OUTER
G1 F1200 X197.228 Y201.984 E62.69189
G1 X198 Y201.925 E62.71764
G1 X198.701 Y201.753 E62.74165
G1 X199.4 Y201.465 E62.76679
G1 X200.037 Y201.073 E62.79167
G1 X200.594 Y200.598 E62.81602
G1 X201.077 Y200.034 E62.84072
G1 X201.469 Y199.388 E62.86585
G1 X201.753 Y198.713 E62.8902
G1 X201.925 Y198 E62.9146
G1 X201.984 Y197.228 E62.94035
